static/scenes/modvil/img/modules/android/0.svg

<svg width="1440" height="1300" fill="none" xmlns="http://www.w3.org/2000/svg"><path d="M1440 0H0v1300h1440V0z" fill="#9B643D"/><path d="M76.4 158c48.9 0 48.9 23.899 97.7 23.899C223 181.899 223 158 271.8 158c48.9 0 48.9 23.899 97.7 23.899 48.9 0 48.9-23.899 97.7-23.899 48.9 0 48.9 23.899 97.7 23.899 48.9 0 48.9-23.899 97.7-23.899 48.9 0 48.9 23.899 97.7 23.899 48.9 0 48.9-23.899 97.7-23.899 48.9 0 48.9 23.899 97.7 23.899 48.9 0 48.9-23.899 97.7-23.899 48.9 0 48.9 23.899 97.7 23.899 48.9 0 48.9-23.899 97.7-23.899 48.9 0 48.9 23.899 97.7 23.899M76.4 226.344c48.9 0 48.9 23.898 97.7 23.898 48.9 0 48.9-23.898 97.7-23.898 48.9 0 48.9 23.898 97.7 23.898 48.9 0 48.9-23.898 97.7-23.898 48.9 0 48.9 23.898 97.7 23.898 48.9 0 48.9-23.898 97.7-23.898 48.9 0 48.9 23.898 97.7 23.898 48.9 0 48.9-23.898 97.7-23.898 48.9 0 48.9 23.898 97.7 23.898 48.9 0 48.9-23.898 97.7-23.898 48.9 0 48.9 23.898 97.7 23.898 48.9 0 48.9-23.898 97.7-23.898 48.9 0 48.9 23.898 97.7 23.898M76.4 294.795c48.9 0 48.9 23.899 97.7 23.899 48.9 0 48.9-23.899 97.7-23.899 48.9 0 48.9 23.899 97.7 23.899 48.9 0 48.9-23.899 97.7-23.899 48.9 0 48.9 23.899 97.7 23.899 48.9 0 48.9-23.899 97.7-23.899 48.9 0 48.9 23.899 97.7 23.899 48.9 0 48.9-23.899 97.7-23.899 48.9 0 48.9 23.899 97.7 23.899 48.9 0 48.9-23.899 97.7-23.899 48.9 0 48.9 23.899 97.7 23.899 48.9 0 48.9-23.899 97.7-23.899 48.9 0 48.9 23.899 97.7 23.899M76.4 363.139c48.9 0 48.9 23.898 97.7 23.898 48.9 0 48.9-23.898 97.7-23.898 48.9 0 48.9 23.898 97.7 23.898 48.9 0 48.9-23.898 97.7-23.898 48.9 0 48.9 23.898 97.7 23.898 48.9 0 48.9-23.898 97.7-23.898 48.9 0 48.9 23.898 97.7 23.898 48.9 0 48.9-23.898 97.7-23.898 48.9 0 48.9 23.898 97.7 23.898 48.9 0 48.9-23.898 97.7-23.898 48.9 0 48.9 23.898 97.7 23.898 48.9 0 48.9-23.898 97.7-23.898 48.9 0 48.9 23.898 97.7 23.898M76.4 431.482c48.9 0 48.9 23.898 97.7 23.898 48.9 0 48.9-23.898 97.7-23.898 48.9 0 48.9 23.898 97.7 23.898 48.9 0 48.9-23.898 97.7-23.898 48.9 0 48.9 23.898 97.7 23.898 48.9 0 48.9-23.898 97.7-23.898 48.9 0 48.9 23.898 97.7 23.898 48.9 0 48.9-23.898 97.7-23.898 48.9 0 48.9 23.898 97.7 23.898 48.9 0 48.9-23.898 97.7-23.898 48.9 0 48.9 23.898 97.7 23.898 48.9 0 48.9-23.898 97.7-23.898 48.9 0 48.9 23.898 97.7 23.898M76.4 499.824c48.9 0 48.9 23.899 97.7 23.899 48.9 0 48.9-23.899 97.7-23.899 48.9 0 48.9 23.899 97.7 23.899 48.9 0 48.9-23.899 97.7-23.899 48.9 0 48.9 23.899 97.7 23.899 48.9 0 48.9-23.899 97.7-23.899 48.9 0 48.9 23.899 97.7 23.899 48.9 0 48.9-23.899 97.7-23.899 48.9 0 48.9 23.899 97.7 23.899 48.9 0 48.9-23.899 97.7-23.899 48.9 0 48.9 23.899 97.7 23.899 48.9 0 48.9-23.899 97.7-23.899 48.9 0 48.9 23.899 97.7 23.899M76.4 568.277c48.9 0 48.9 23.898 97.7 23.898 48.9 0 48.9-23.898 97.7-23.898 48.9 0 48.9 23.898 97.7 23.898 48.9 0 48.9-23.898 97.7-23.898 48.9 0 48.9 23.898 97.7 23.898 48.9 0 48.9-23.898 97.7-23.898 48.9 0 48.9 23.898 97.7 23.898 48.9 0 48.9-23.898 97.7-23.898 48.9 0 48.9 23.898 97.7 23.898 48.9 0 48.9-23.898 97.7-23.898 48.9 0 48.9 23.898 97.7 23.898 48.9 0 48.9-23.898 97.7-23.898 48.9 0 48.9 23.898 97.7 23.898M76.4 636.619c48.9 0 48.9 23.899 97.7 23.899 48.9 0 48.9-23.899 97.7-23.899 48.9 0 48.9 23.899 97.7 23.899 48.9 0 48.9-23.899 97.7-23.899 48.9 0 48.9 23.899 97.7 23.899 48.9 0 48.9-23.899 97.7-23.899 48.9 0 48.9 23.899 97.7 23.899 48.9 0 48.9-23.899 97.7-23.899 48.9 0 48.9 23.899 97.7 23.899 48.9 0 48.9-23.899 97.7-23.899 48.9 0 48.9 23.899 97.7 23.899 48.9 0 48.9-23.899 97.7-23.899 48.9 0 48.9 23.899 97.7 23.899M76.4 704.963c48.9 0 48.9 23.899 97.7 23.899 48.9 0 48.9-23.899 97.7-23.899 48.9 0 48.9 23.899 97.7 23.899 48.9 0 48.9-23.899 97.7-23.899 48.9 0 48.9 23.899 97.7 23.899 48.9 0 48.9-23.899 97.7-23.899 48.9 0 48.9 23.899 97.7 23.899 48.9 0 48.9-23.899 97.7-23.899 48.9 0 48.9 23.899 97.7 23.899 48.9 0 48.9-23.899 97.7-23.899 48.9 0 48.9 23.899 97.7 23.899 48.9 0 48.9-23.899 97.7-23.899 48.9 0 48.9 23.899 97.7 23.899M76.4 773.307c48.9 0 48.9 23.899 97.7 23.899 48.9 0 48.9-23.899 97.7-23.899 48.9 0 48.9 23.899 97.7 23.899 48.9 0 48.9-23.899 97.7-23.899 48.9 0 48.9 23.899 97.7 23.899 48.9 0 48.9-23.899 97.7-23.899 48.9 0 48.9 23.899 97.7 23.899 48.9 0 48.9-23.899 97.7-23.899 48.9 0 48.9 23.899 97.7 23.899 48.9 0 48.9-23.899 97.7-23.899 48.9 0 48.9 23.899 97.7 23.899 48.9 0 48.9-23.899 97.7-23.899 48.9 0 48.9 23.899 97.7 23.899M76.4 841.65c48.9 0 48.9 23.898 97.7 23.898 48.9 0 48.9-23.898 97.7-23.898 48.9 0 48.9 23.898 97.7 23.898 48.9 0 48.9-23.898 97.7-23.898 48.9 0 48.9 23.898 97.7 23.898 48.9 0 48.9-23.898 97.7-23.898 48.9 0 48.9 23.898 97.7 23.898 48.9 0 48.9-23.898 97.7-23.898 48.9 0 48.9 23.898 97.7 23.898 48.9 0 48.9-23.898 97.7-23.898 48.9 0 48.9 23.898 97.7 23.898 48.9 0 48.9-23.898 97.7-23.898 48.9 0 48.9 23.898 97.7 23.898M76.4 910.101c48.9 0 48.9 23.899 97.7 23.899 48.9 0 48.9-23.899 97.7-23.899 48.9 0 48.9 23.899 97.7 23.899 48.9 0 48.9-23.899 97.7-23.899 48.9 0 48.9 23.899 97.7 23.899 48.9 0 48.9-23.899 97.7-23.899 48.9 0 48.9 23.899 97.7 23.899 48.9 0 48.9-23.899 97.7-23.899 48.9 0 48.9 23.899 97.7 23.899 48.9 0 48.9-23.899 97.7-23.899 48.9 0 48.9 23.899 97.7 23.899 48.9 0 48.9-23.899 97.7-23.899 48.9 0 48.9 23.899 97.7 23.899" stroke="#774F2E" stroke-width="20" stroke-miterlimit="10"/></svg>

<svg width="1440" height="1300" viewBox="0 0 1440 1300" fill="none" xmlns="http://www.w3.org/2000/svg">
<path d="M1440 0H0V1300H1440V0Z" fill="#9B643D"/>
<path d="M76.3999 158C125.3 158 125.3 181.899 174.1 181.899C223 181.899 223 158 271.8 158C320.7 158 320.7 181.899 369.5 181.899C418.4 181.899 418.4 158 467.2 158C516.1 158 516.1 181.899 564.9 181.899C613.8 181.899 613.8 158 662.6 158C711.5 158 711.5 181.899 760.3 181.899C809.2 181.899 809.2 158 858 158C906.9 158 906.9 181.899 955.7 181.899C1004.6 181.899 1004.6 158 1053.4 158C1102.3 158 1102.3 181.899 1151.1 181.899C1200 181.899 1200 158 1248.8 158C1297.7 158 1297.7 181.899 1346.5 181.899" stroke="#774F2E" stroke-width="20" stroke-miterlimit="10"/>
<path d="M76.3999 226.344C125.3 226.344 125.3 250.242 174.1 250.242C223 250.242 223 226.344 271.8 226.344C320.7 226.344 320.7 250.242 369.5 250.242C418.4 250.242 418.4 226.344 467.2 226.344C516.1 226.344 516.1 250.242 564.9 250.242C613.8 250.242 613.8 226.344 662.6 226.344C711.5 226.344 711.5 250.242 760.3 250.242C809.2 250.242 809.2 226.344 858 226.344C906.9 226.344 906.9 250.242 955.7 250.242C1004.6 250.242 1004.6 226.344 1053.4 226.344C1102.3 226.344 1102.3 250.242 1151.1 250.242C1200 250.242 1200 226.344 1248.8 226.344C1297.7 226.344 1297.7 250.242 1346.5 250.242" stroke="#774F2E" stroke-width="20" stroke-miterlimit="10"/>
<path d="M76.3999 294.795C125.3 294.795 125.3 318.694 174.1 318.694C223 318.694 223 294.795 271.8 294.795C320.7 294.795 320.7 318.694 369.5 318.694C418.4 318.694 418.4 294.795 467.2 294.795C516.1 294.795 516.1 318.694 564.9 318.694C613.8 318.694 613.8 294.795 662.6 294.795C711.5 294.795 711.5 318.694 760.3 318.694C809.2 318.694 809.2 294.795 858 294.795C906.9 294.795 906.9 318.694 955.7 318.694C1004.6 318.694 1004.6 294.795 1053.4 294.795C1102.3 294.795 1102.3 318.694 1151.1 318.694C1200 318.694 1200 294.795 1248.8 294.795C1297.7 294.795 1297.7 318.694 1346.5 318.694" stroke="#774F2E" stroke-width="20" stroke-miterlimit="10"/>
<path d="M76.3999 363.139C125.3 363.139 125.3 387.037 174.1 387.037C223 387.037 223 363.139 271.8 363.139C320.7 363.139 320.7 387.037 369.5 387.037C418.4 387.037 418.4 363.139 467.2 363.139C516.1 363.139 516.1 387.037 564.9 387.037C613.8 387.037 613.8 363.139 662.6 363.139C711.5 363.139 711.5 387.037 760.3 387.037C809.2 387.037 809.2 363.139 858 363.139C906.9 363.139 906.9 387.037 955.7 387.037C1004.6 387.037 1004.6 363.139 1053.4 363.139C1102.3 363.139 1102.3 387.037 1151.1 387.037C1200 387.037 1200 363.139 1248.8 363.139C1297.7 363.139 1297.7 387.037 1346.5 387.037" stroke="#774F2E" stroke-width="20" stroke-miterlimit="10"/>
<path d="M76.3999 431.482C125.3 431.482 125.3 455.38 174.1 455.38C223 455.38 223 431.482 271.8 431.482C320.7 431.482 320.7 455.38 369.5 455.38C418.4 455.38 418.4 431.482 467.2 431.482C516.1 431.482 516.1 455.38 564.9 455.38C613.8 455.38 613.8 431.482 662.6 431.482C711.5 431.482 711.5 455.38 760.3 455.38C809.2 455.38 809.2 431.482 858 431.482C906.9 431.482 906.9 455.38 955.7 455.38C1004.6 455.38 1004.6 431.482 1053.4 431.482C1102.3 431.482 1102.3 455.38 1151.1 455.38C1200 455.38 1200 431.482 1248.8 431.482C1297.7 431.482 1297.7 455.38 1346.5 455.38" stroke="#774F2E" stroke-width="20" stroke-miterlimit="10"/>
<path d="M76.3999 499.824C125.3 499.824 125.3 523.723 174.1 523.723C223 523.723 223 499.824 271.8 499.824C320.7 499.824 320.7 523.723 369.5 523.723C418.4 523.723 418.4 499.824 467.2 499.824C516.1 499.824 516.1 523.723 564.9 523.723C613.8 523.723 613.8 499.824 662.6 499.824C711.5 499.824 711.5 523.723 760.3 523.723C809.2 523.723 809.2 499.824 858 499.824C906.9 499.824 906.9 523.723 955.7 523.723C1004.6 523.723 1004.6 499.824 1053.4 499.824C1102.3 499.824 1102.3 523.723 1151.1 523.723C1200 523.723 1200 499.824 1248.8 499.824C1297.7 499.824 1297.7 523.723 1346.5 523.723" stroke="#774F2E" stroke-width="20" stroke-miterlimit="10"/>
<path d="M76.3999 568.277C125.3 568.277 125.3 592.175 174.1 592.175C223 592.175 223 568.277 271.8 568.277C320.7 568.277 320.7 592.175 369.5 592.175C418.4 592.175 418.4 568.277 467.2 568.277C516.1 568.277 516.1 592.175 564.9 592.175C613.8 592.175 613.8 568.277 662.6 568.277C711.5 568.277 711.5 592.175 760.3 592.175C809.2 592.175 809.2 568.277 858 568.277C906.9 568.277 906.9 592.175 955.7 592.175C1004.6 592.175 1004.6 568.277 1053.4 568.277C1102.3 568.277 1102.3 592.175 1151.1 592.175C1200 592.175 1200 568.277 1248.8 568.277C1297.7 568.277 1297.7 592.175 1346.5 592.175" stroke="#774F2E" stroke-width="20" stroke-miterlimit="10"/>
<path d="M76.3999 636.619C125.3 636.619 125.3 660.518 174.1 660.518C223 660.518 223 636.619 271.8 636.619C320.7 636.619 320.7 660.518 369.5 660.518C418.4 660.518 418.4 636.619 467.2 636.619C516.1 636.619 516.1 660.518 564.9 660.518C613.8 660.518 613.8 636.619 662.6 636.619C711.5 636.619 711.5 660.518 760.3 660.518C809.2 660.518 809.2 636.619 858 636.619C906.9 636.619 906.9 660.518 955.7 660.518C1004.6 660.518 1004.6 636.619 1053.4 636.619C1102.3 636.619 1102.3 660.518 1151.1 660.518C1200 660.518 1200 636.619 1248.8 636.619C1297.7 636.619 1297.7 660.518 1346.5 660.518" stroke="#774F2E" stroke-width="20" stroke-miterlimit="10"/>
<path d="M76.3999 704.963C125.3 704.963 125.3 728.862 174.1 728.862C223 728.862 223 704.963 271.8 704.963C320.7 704.963 320.7 728.862 369.5 728.862C418.4 728.862 418.4 704.963 467.2 704.963C516.1 704.963 516.1 728.862 564.9 728.862C613.8 728.862 613.8 704.963 662.6 704.963C711.5 704.963 711.5 728.862 760.3 728.862C809.2 728.862 809.2 704.963 858 704.963C906.9 704.963 906.9 728.862 955.7 728.862C1004.6 728.862 1004.6 704.963 1053.4 704.963C1102.3 704.963 1102.3 728.862 1151.1 728.862C1200 728.862 1200 704.963 1248.8 704.963C1297.7 704.963 1297.7 728.862 1346.5 728.862" stroke="#774F2E" stroke-width="20" stroke-miterlimit="10"/>
<path d="M76.3999 773.307C125.3 773.307 125.3 797.206 174.1 797.206C223 797.206 223 773.307 271.8 773.307C320.7 773.307 320.7 797.206 369.5 797.206C418.4 797.206 418.4 773.307 467.2 773.307C516.1 773.307 516.1 797.206 564.9 797.206C613.8 797.206 613.8 773.307 662.6 773.307C711.5 773.307 711.5 797.206 760.3 797.206C809.2 797.206 809.2 773.307 858 773.307C906.9 773.307 906.9 797.206 955.7 797.206C1004.6 797.206 1004.6 773.307 1053.4 773.307C1102.3 773.307 1102.3 797.206 1151.1 797.206C1200 797.206 1200 773.307 1248.8 773.307C1297.7 773.307 1297.7 797.206 1346.5 797.206" stroke="#774F2E" stroke-width="20" stroke-miterlimit="10"/>
<path d="M76.3999 841.65C125.3 841.65 125.3 865.548 174.1 865.548C223 865.548 223 841.65 271.8 841.65C320.7 841.65 320.7 865.548 369.5 865.548C418.4 865.548 418.4 841.65 467.2 841.65C516.1 841.65 516.1 865.548 564.9 865.548C613.8 865.548 613.8 841.65 662.6 841.65C711.5 841.65 711.5 865.548 760.3 865.548C809.2 865.548 809.2 841.65 858 841.65C906.9 841.65 906.9 865.548 955.7 865.548C1004.6 865.548 1004.6 841.65 1053.4 841.65C1102.3 841.65 1102.3 865.548 1151.1 865.548C1200 865.548 1200 841.65 1248.8 841.65C1297.7 841.65 1297.7 865.548 1346.5 865.548" stroke="#774F2E" stroke-width="20" stroke-miterlimit="10"/>
<path d="M76.3999 910.101C125.3 910.101 125.3 934 174.1 934C223 934 223 910.101 271.8 910.101C320.7 910.101 320.7 934 369.5 934C418.4 934 418.4 910.101 467.2 910.101C516.1 910.101 516.1 934 564.9 934C613.8 934 613.8 910.101 662.6 910.101C711.5 910.101 711.5 934 760.3 934C809.2 934 809.2 910.101 858 910.101C906.9 910.101 906.9 934 955.7 934C1004.6 934 1004.6 910.101 1053.4 910.101C1102.3 910.101 1102.3 934 1151.1 934C1200 934 1200 910.101 1248.8 910.101C1297.7 910.101 1297.7 934 1346.5 934" stroke="#774F2E" stroke-width="20" stroke-miterlimit="10"/>
</svg>
